images_sukapura_svg/cmd/sc_diatime.svg

<svg viewBox="0 0 16 16" xmlns="http://www.w3.org/2000/svg">
/&amp;amp;gt;<path d="m1 4h14v11h-14z" fill="#fff"/><path d="m0 3v13h1 8.585938 5.414062 1v-8.414062-3.585938-1zm1 1h14v4.585938 6.414062h-4.414062-9.585938z" fill="#98989d"/><path d="m0 0h16v2h-16z" fill="#0040dd"/><path d="m2 6h12v2h-12z" fill="#ff9500"/><circle cx="11.5" cy="11.5" fill="#fff" r="3.5"/><path d="m11.5 6a5.5 5.5 0 0 0 -5.5 5.5 5.5 5.5 0 0 0 2.34375 4.5h1.2421875 5.0644535a5.5 5.5 0 0 0 1.349609-1.34375v-6.3066406a5.5 5.5 0 0 0 -4.5-2.3496094z" fill="#fff" fill-opacity=".784314"/><g fill="#98989d"><path d="m11.5 7c-2.493 0-4.5 2.007-4.5 4.5s2.007 4.5 4.5 4.5 4.5-2.007 4.5-4.5-2.007-4.5-4.5-4.5zm0 1a3.5 3.5 0 0 1 3.5 3.5 3.5 3.5 0 0 1 -3.5 3.5 3.5 3.5 0 0 1 -3.5-3.5 3.5 3.5 0 0 1 3.5-3.5z"/><path d="m11 9v3h1 2v-1h-2v-2z"/></g></svg>

<?xml version="1.0" encoding="UTF-8" standalone="no"?>
<svg
   xmlns:dc="http://purl.org/dc/elements/1.1/"
   xmlns:cc="http://creativecommons.org/ns#"
   xmlns:rdf="http://www.w3.org/1999/02/22-rdf-syntax-ns#"
   xmlns:svg="http://www.w3.org/2000/svg"
   xmlns="http://www.w3.org/2000/svg"
   xmlns:sodipodi="http://sodipodi.sourceforge.net/DTD/sodipodi-0.dtd"
   xmlns:inkscape="http://www.inkscape.org/namespaces/inkscape"
   viewBox="0 0 16 16"
   version="1.1"
   id="svg24"
   sodipodi:docname="sc_diatime.svg"
   inkscape:version="0.92.4 (unknown)"><metadata
   id="metadata30">
  <rdf:RDF>
    <cc:Work
       rdf:about="">
      <dc:format>image/svg+xml</dc:format>
      <dc:type
         rdf:resource="http://purl.org/dc/dcmitype/StillImage" />
      <dc:title></dc:title>
    </cc:Work>
  </rdf:RDF>
</metadata>
<defs
   id="defs28" />
<sodipodi:namedview
   pagecolor="#ffffff"
   bordercolor="#666666"
   borderopacity="1"
   objecttolerance="10"
   gridtolerance="10"
   guidetolerance="10"
   inkscape:pageopacity="0"
   inkscape:pageshadow="2"
   inkscape:window-width="1360"
   inkscape:window-height="714"
   id="namedview26"
   showgrid="true"
   inkscape:zoom="20.85965"
   inkscape:cx="4.6285947"
   inkscape:cy="6.9475701"
   inkscape:window-x="0"
   inkscape:window-y="28"
   inkscape:window-maximized="1"
   inkscape:current-layer="svg24">
  <inkscape:grid
     type="xygrid"
     id="grid852" />
</sodipodi:namedview>
/&amp;gt;<path
   d="m1 4h14v11h-14z"
   fill="#fff"
   id="path2" />
<path
   d="m0 3v13h1 8.585938 5.414062 1v-8.414062-3.585938-1zm1 1h14v4.585938 6.414062h-4.414062-9.585938z"
   id="path4"
   fill="#98989d" />
<path
   d="m0 0h16v2h-16z"
   fill="#0040dd"
   id="path6" />
<path
   d="m2 6h12v2h-12z"
   fill="#ffd60a"
   id="path8"
   style="fill:#ff9500;fill-opacity:1" />
<circle
   style="fill:#ffffff"
   cx="11.5"
   cy="11.5"
   r="3.5"
   id="circle2" />
<path
   style="opacity:1;fill:#ffffff;fill-opacity:0.78431374;stroke:none;stroke-width:1;stroke-linecap:round;stroke-linejoin:round;stroke-miterlimit:4;stroke-dasharray:none;stroke-opacity:1"
   d="M 11.5 6 A 5.5 5.5 0 0 0 6 11.5 A 5.5 5.5 0 0 0 8.34375 16 L 9.5859375 16 L 14.650391 16 A 5.5 5.5 0 0 0 16 14.65625 L 16 8.3496094 A 5.5 5.5 0 0 0 11.5 6 z "
   id="path854" />
<g
   style="fill:#98989d"
   id="g16">
  <path
     inkscape:connector-curvature="0"
     d="M 11.5,7 C 9.007,7 7,9.007 7,11.5 7,13.993 9.007,16 11.5,16 13.993,16 16,13.993 16,11.5 16,9.007 13.993,7 11.5,7 Z m 0,1 A 3.5,3.5 0 0 1 15,11.5 3.5,3.5 0 0 1 11.5,15 3.5,3.5 0 0 1 8,11.5 3.5,3.5 0 0 1 11.5,8 Z"
     id="path12-2" />
  <path
     inkscape:connector-curvature="0"
     d="m 11,9 v 3 h 1 2 V 11 H 12 V 9 Z"
     id="path14-3" />
</g>
</svg>
